X:1
T:Est il possible à moy
T:Jean de Castro
T:Source : La fleur des chansons à 3---Louvain---P.Phalèse---1574. Editor : André Vierendeels (11/08/18) Notes : Original clefs : C1, C3, C4 Original note values have been halved Editorial accidentals above the staff 
T:Est il possible à moy
T:©
T:©
T:©
T:©
C:Jean de Castro
Z:©
%%score [ 1 [ 2 3 ] ]
L:1/8
Q:1/4=96
M:2/2
K:F
V:1 treble nm="Soprano" snm="S"
V:2 treble-8 nm="Tenor 1" snm="T 1"
V:3 treble-8 nm="Tenor 2" snm="T 2"
V:1
 z8 | z2 c2 Ac B2 | G2 z A FA G2 | CcAc BA G2 | z2 z d Bd c2- | c2 B2 A2 F2 | G2 G2 A4 | %7
w: |Est il pos- si-|ble, est il pos- si-|ble, est il pos- si- ble'à moy,|est il pos- si-|* ble'à moy pou-|voir trou- ver|
 z2 F2 F2 F2 | B3 A G2 F2 | D_E D2 CGGG | c3 B A2 G2 | BA G2 A2 z c | c2 c2 d2 d2- | dBA F2 G2 A | %14
w: au- cun moy-|en pour a- voir|vo- stre gra- ce, au- cun moy-|en pour a- voir|vo- stre gra- ce, au-|cun moy- en pour|_ a- voir, pour a- voir|
 cA G2 A2 c2- | c A2 B A4 | z2 A2 GG c2- | c2 c2 AA B2- | BAGG A2 c2- | cA d2 c4 | z A2 c B2 A2 | %21
w: vo- stre gra- ce, qu'en|_ dic- tes vous?|En pour- quoy ie|_ fi- ner, en pour-|* quoy ie fi- ner, dic-|* * tes ouy,|dic- * tes ouy,|
 z4 z2 c2 | B2 A2 cA G2 | A2 c2 B2 A2 | D E2 F2 G z G | BAAG/F/ G4 | A2 z2 z4 |] %27
w: ou|mon cueur se tres- pas-|se, ou mon cueur|se tres- pas- se, tres-|pas- * * * * *|se.|
V:2
 f2 df e2 c2 | d2 e2 f2 d2 | e2 z c Ac B2 | A2 z f df e2 | c2 z f df e2 | d2 g3 f f2- | %6
w: Est il pos- si- ble'à|moy pou- voir trou-|ver, est il pos- si-|ble, est il pos- si-|ble, est il pos- si-|ble'à moy pou- voir|
 f2 e2 fccc | f2 c2 d4- | d2 d2 G2 A2 | Bc3/2=B/4A/4B G2 z c | c2 c2 f2 e2 | gfee d2 c2 | %12
w: _ trou- ver au- cun moy-|en pour a-|* voir vo- stre|gra- * * * * ce, au-|cun moy- en pour|a- voir vo- stre gra- ce,|
 z2 f2 f2 f2 | g2 c2 d2 e2 | ff e2 c2 z c | f2 d2 f4- | f4 z2 g2 | a2 g2 ^f2 g2- | %18
w: au- cun moy-|en pour a- voir|vo- stre gra- ce, qu'en|dic- tes vous?|_ En|pour- quoy ie fi-|
"^-natural" gf3/2e/4d/4e f4 | z2 f3 f e2 | d f2 e g2 f2 | z2 c2 d2 e2 | f3 d e f2 e | %23
w: * * * * * ner,|dic- tes ouy,|dic- * * tes ouy,|ou mon cueur|se tres- pas- * *|
 f2 z F G2 A2 | =B2 c2 dG g2- | gf f4 e2 | f2 z2 z4 |] %27
w: se, ou mon cueur|se tres- pas- * *||se.|
V:3
 z4 c2 Ac | B2 A2 F2 z G | EG F4 G2 | z4 z2 c2 | Ac B4 c2 | G2 G2 d2 d2 | c4 z2 F2 | F2 F2 B3 A | %8
w: Est il pos-|si- ble'à moy, est|il pos- si- ble,|est|il pos- si- ble'à|moy pou- voir trou-|ver au-|cun moy- en pour|
 G2 D2 E2 F2 | G4 C4 | z4 z2 c2 | c2 c2 f2 z F | F2 F2 B4 | z2 F2 B2 c2 | df c2 F4 | z4 z2 F2 | %16
w: a- voir vo- stre|gra- ce,|au-|cun moy en, au-|cun moy- en|pour a- voir|vo- stre gra- ce,|qu'en|
 B2 F2 c2 c2 | f2 c2 d2 B2 | c4 z2 A2- | AF B2 A4 | z4 z2 F2 | G2 A2 B2 c2 | d4 c4 | z4 z2 F2 | %24
w: dic- tes vous en|pour- quoy ie fi-|ner, dic-|* * tes ouy,|ou|mon cueur se tres-|pas- se,|ou|
 G2 A2 B2 c2 | d4 c4 | F2 z2 z4 |] %27
w: mon cueur se tres-|pas- *|se.|

